X: 31539
T: Paddy's Trip To Scotland
R: reel
M: 4/4
K: Dmajor
|:"D"d~A3 "G"BAGF|GABd "A"cABc|"D"d{e}ded "A"cABc|dfed "G"cABc|
"D"d~A3 "G"BAGF|GABd "A"cABc|"D"d{e}ded "A"cABc|"D"dfec {e}d2dc:|
|:"D"Adfd Adfd|"G"~g3f edcB|"A"Acec Acec|"G"~f3e "A"dcBc|
"D"Adfd Adfd|"G"~g3f efge|"D"a~A3 "G"BABc|1 "A"dfec "D"d{e}ddB:|2 "A"dfec "D"d4||

